<?xml version="1.0" encoding="UTF-8"?>
<map version="1.10" tiledversion="1.11.2" orientation="isometric" renderorder="left-up" width="10" height="10" tilewidth="128" tileheight="64" infinite="0" nextlayerid="2" nextobjectid="1">
 <tileset firstgid="1" source="Basic_ground_map.tsx"/>
 <layer id="1" name="Ground" width="10" height="10">
  <data encoding="csv">
67,84,84,84,84,84,84,84,67,67,
67,84,67,84,84,67,84,84,67,67,
67,84,84,84,84,84,84,84,67,67,
67,67,67,67,67,67,67,67,67,67,
67,67,67,67,67,67,67,67,67,67,
67,67,67,67,67,67,67,67,67,67,
67,67,68,68,68,68,68,68,68,67,
67,67,68,68,68,68,68,68,68,67,
67,67,68,68,68,68,68,68,68,67,
67,67,67,67,67,67,67,67,67,67
</data>
 </layer>
</map>
